packages/rainbowkit/src/wallets/walletConnectors/frontierWallet/frontierWallet.svg

<svg width="28" height="28" viewBox="0 0 28 28" fill="none" xmlns="http://www.w3.org/2000/svg">
<g clip-path="url(#clip0_89_9)">
<mask id="mask0_89_9" style="mask-type:luminance" maskUnits="userSpaceOnUse" x="0" y="0" width="28" height="28">
<path d="M0 0H28V28H0V0Z" fill="white"/>
</mask>
<g mask="url(#mask0_89_9)">
<path d="M28 0H0V28H28V0Z" fill="#CC703C"/>
<path fill-rule="evenodd" clip-rule="evenodd" d="M22 5L21.8983 5.24449L21.5652 6.02392L21.3436 6.52767C19.6658 10.2993 18.3597 12.0895 16.9707 12.0895C16.1707 12.0895 15.6973 11.8803 15.0844 11.3888L14.908 11.2428C14.4666 10.8736 14.2812 10.7825 13.8562 10.7825C13.6347 10.7825 13.2393 11.0393 12.7388 11.6399C12.2194 12.2618 11.65 13.1815 11.0388 14.3925L10.9814 14.5057H16.9378L16.1962 15.9021H10.6335V21.6354H9V5H22ZM19.6822 6.39722H10.6343V11.9402C11.7173 10.2336 12.7478 9.37709 13.8562 9.37709C14.7177 9.37709 15.2264 9.59779 15.8663 10.1098L16.0493 10.2607C16.4612 10.6053 16.6195 10.6849 16.9715 10.6849C17.3595 10.6849 18.3892 9.20234 19.6822 6.39722Z" fill="white"/>
</g>
</g>
<defs>
<clipPath id="clip0_89_9">
<rect width="28" height="28" fill="white"/>
</clipPath>
</defs>
</svg>

<svg xmlns="http://www.w3.org/2000/svg" width="28" height="28" fill="none"><g clip-path="url(#a)"><mask id="b" width="28" height="28" x="0" y="0" maskUnits="userSpaceOnUse" style="mask-type:luminance"><path fill="#fff" d="M0 0h28v28H0V0Z"/></mask><g mask="url(#b)"><path fill="#CC703C" d="M28 0H0v28h28V0Z"/><path fill="#fff" fill-rule="evenodd" d="m22 5-.102.244-.333.78-.221.504c-1.678 3.771-2.984 5.561-4.373 5.561-.8 0-1.274-.209-1.887-.7l-.176-.146c-.441-.37-.627-.46-1.052-.46-.221 0-.617.256-1.117.857-.52.622-1.089 1.541-1.7 2.752l-.058.114h5.957l-.742 1.396h-5.563v5.733H9V5h13Zm-2.318 1.397h-9.048v5.543c1.083-1.706 2.114-2.563 3.222-2.563.862 0 1.37.22 2.01.733l.183.15c.412.345.57.425.922.425.389 0 1.418-1.483 2.711-4.288Z" clip-rule="evenodd"/></g></g><defs><clipPath id="a"><path fill="#fff" d="M0 0h28v28H0z"/></clipPath></defs></svg>
